!!!OTL: 683d. Ein Trostwort des Getreuen.
!!!ODT: 1854
!!!ARE: Europa, Mitteleuropa, Deutschland, Gransee, Roennebeck
!!!SCT: E0683C
!!!TXL: @@DE
!!!YEM: Copyright 1995, estate of Helmut Schaffrath.
**kern	**text
*ICvox	*
*M6/8	*
*k[b-]	*
*F:	*
!LO:TX:a:t=Aus Rönnebeck bei Granſee. 1854.	!
{8c	1._Hier
=1	=1
4f	un-
8g	-ter
4a	die-
8b-	-ſem
=2	=2
(4cc	Bäume-
8a)	.
4f}	-lein
{8f	ſchlief
=3	=3
4b-	ich
8dd	die
4ff	gan-
8dd	-ʒe
=4	=4
4.cc	Nacht,
4r}	.
{16ccL	in
16b-J	.
=5	=5
4a	mein
8a	Feins-
4cc	-lieb-
8b-	-chens
=6	=6
(4g	Ar-
8dd)	.
4cc}	-men,
{8b-	da-
=7	=7
4.a	-rin
4.g	ich
=8	=8
4.f	lag.
4r}	.
{16ccL	in
16b-J	.
=9	=9
4a	mein
8a	Feins-
4cc	-lieb-
8b-	-chens
=10	=10
(4g	Ar-
8dd)	.
4cc}	-men,
{8b-	da-
=11	=11
4.a	-rin
4.g	ich
=12	=12
4.f	lag.
4r}	.
==	==
!!!AGN: Liebes - Lied, Leid, Klage
!!!ONB: ESAC (Essen Associative Code) Database: ERK2
!!!AMT: compound duple
!!!AIN: vox
!!!EED: Helmut Schaffrath
!!!EEV: 1.0
!!!GTL: Liebeslieder [Neuere (aus dem 18. bis 19. Jahrh.) - Liebesleid] 678-740
!!!URL-scan: https://rosdok.uni-rostock.de/mcrviewer/recordIdentifier/rosdok_ppn745177662/iview2/phys_0486.iview2?x=193.8995864193107&y=2079.73392107198&scale=0.7029437510502773&rotation=0&layout=singlePageLayout
!!!ENC: Anna Maria Matuszewska
!!!EEV: 2024/12/16
*-	*-
